RestoDelMundo/Suecia/Otras Categorias/Limmaredes If.svg

<svg xmlns="http://www.w3.org/2000/svg" viewBox="0 0 660 660"><path fill="#dbaa4e" d="M649.53 141.563v376.21c-72.778 0-131.742 58.962-131.742 131.739H141.58c0-72.688-59.116-131.563-131.806-131.739l.066-376.21c72.777 0 131.74-58.96 131.74-131.739h376.208c0 72.778 58.963 131.739 131.742 131.739"/><path d="M25.593 502.9V156.435c31.503-3.431 60.897-16.721 84.041-38.105l69.523 69.698v79.378l-62.307 62.305 62.307 62.218v88.267h88.177L329.64 542.5l62.305-62.304h79.379l69.61 69.608c-21.298 23.058-34.586 52.644-38.018 83.885l-346.464.07C149.059 564.853 94.674 510.379 25.77 502.9z"/><path fill="#ee3124" d="M633.776 156.435V502.9c-31.329 3.344-60.722 16.632-83.868 37.928l-69.785-69.523v-79.376l62.394-62.218-62.394-62.305v-88.178h-88.179l-62.305-62.394-62.305 62.394h-79.29l-69.609-69.698a146.9 146.9 0 0 0 38.016-83.955h346.464c7.481 69.171 61.954 123.468 130.861 130.86"/><path fill="#fff" d="m329.64 139.01 55.88 55.882h78.939v78.939l55.793 55.88-55.793 55.793v78.938H385.52l-55.88 55.882-55.793-55.882h-78.94v-78.938l-55.88-55.793 55.88-55.88v-78.939h78.94Z"/><g fill="#dbaa4e"><path d="M318.727 251.302h21.913v147.317h-21.913ZM378.215 251.302v147.317h22.003V335.96h21.914v-21.914h-21.914v-40.744h43.826v-22ZM230.902 251.302h22.001v125.314h43.824v22.003h-65.825Z"/></g></svg>

<svg enable-background="new 0 0 660 660" viewBox="0 0 660 660" xmlns="http://www.w3.org/2000/svg"><path d="M 649.53 141.563 v 376.21 c -72.778 0 -131.742 58.962 -131.742 131.739 H 141.58 c 0 -72.688 -59.116 -131.563 -131.806 -131.739 l .066 -376.21 c 72.777 0 131.74 -58.96 131.74 -131.739 h 376.208 C 517.788 82.602 576.751 141.563 649.53 141.563 z" fill="#dbaa4e"/><path d="M 25.593 502.9 V 156.435 c 31.503 -3.431 60.897 -16.721 84.041 -38.105 l 69.523 69.698 v 79.378 l -62.307 62.305 l 62.307 62.218 v 88.267 h 88.177 L 329.64 542.5 l 62.305 -62.304 h 79.379 l 69.61 69.608 c -21.298 23.058 -34.586 52.644 -38.018 83.885 l -346.464 .07 c -7.393 -68.906 -61.778 -123.38 -130.682 -130.859 H 25.593 z"/><path d="M 633.776 156.435 V 502.9 c -31.329 3.344 -60.722 16.632 -83.868 37.928 l -69.785 -69.523 v -79.376 l 62.394 -62.218 l -62.394 -62.305 v -88.178 h -88.179 l -62.305 -62.394 l -62.305 62.394 h -79.29 l -69.609 -69.698 c 21.384 -23.233 34.672 -52.626 38.016 -83.955 h 346.464 C 510.396 94.746 564.869 149.043 633.776 156.435 z" fill="#ee3124"/><path d="M 329.64 139.01 L 385.52 194.892 L 464.459 194.892 L 464.459 273.831 L 520.252 329.711 L 464.459 385.504 L 464.459 464.442 L 385.52 464.442 L 329.64 520.324 L 273.847 464.442 L 194.907 464.442 L 194.907 385.504 L 139.027 329.711 L 194.907 273.831 L 194.907 194.892 L 273.847 194.892 Z" fill="#fff"/><g><path d="M 318.727 251.302 H 340.64 V 398.619 H 318.727 Z" fill="#dbaa4e"/><path d="M 378.215 251.302 L 378.215 398.619 L 400.218 398.619 L 400.218 335.96 L 422.132 335.96 L 422.132 314.046 L 400.218 314.046 L 400.218 273.302 L 444.044 273.302 L 444.044 251.302 Z" fill="#dbaa4e"/><path d="M 230.902 251.302 L 252.903 251.302 L 252.903 376.616 L 296.727 376.616 L 296.727 398.619 L 230.902 398.619 Z" fill="#dbaa4e"/></g></svg>
